X:1
T:127 - Jesus Bondoso
T:Letra: Manuel Antônio de Menezes (1848-1941)
T:Música: Ira David Sankey (1840-1908)
M:4/4
L:1/8
Q:1/4=115
K:Eb
V:1
B2 | "Eb"B3B =A2B2 | e4 B2G2 | "Eb/Bb"B3B "Bb7"A2F2 | "Eb"G4z2 B2 | B3B =A2B2 | e3B B2G2 | "Eb/Bb"B3B "Bb7"A2D2 | "Eb"E4z2G2 | "Bb"F3=EF2 "Bb7"c2 | "Eb"B3G B2G2 | "Bb/F"F2B2 "F7"B=A dc | "Bb"B4z2 "Bb7"BA | "Eb"G2G2 "Bb"B2B2 | "Cm"e3e "Ab"c2 (dc) | "Eb/Bb"B3B "Bb7"A2D2 | "Eb"E6 |]
w: 1.~Je-sus, teu No-meé san-to, A-má-vel teu que-rer; Lou-vor re-al, com pu-roa-mor, Que-re-mos-Te ren-der. Po-der e hon-rae gló-riaa Ti Nós vi-mos tri_bu_tar; Com_ gra-ti-dão e de-vo-ção Teu_ cul-to ce-le-brar.
w: 2.~Je-sus, teu No-meé san-to, Me-re-ceo nos-soa-mor; Nos al-tos céus és nos-so Deus, O nos-so Pro-te-tor; In-com-pa-rá-vel sem-preés Tu Em tu-a com_pai_xão, Pois_ Tu vi-es-teao mun-do vil Fa_zer-Te nos-soir-mão!
w: 3.~Je-sus, teu No-meé san-to, A-mar-ga foi a cruz: O teu so-frer, o teu pe-nar A vi-da nos pro-duz; Na gló-ria já sen-ta-does-tás, A-ten-toàa-do_ra_ção Que_ teus fi-éis Te vêm pres-tar Com_ gra-to co-ra-ção.
W: 
W:
W: 1. Jesus, teu Nome é santo,
W: Amável teu querer;
W: Louvor real, com puro amor,
W: Queremos-Te render.
W: Poder e honra e glória a Ti
W: Nós vimos tributar;
W: Com gratidão e devoção
W: Teu culto celebrar.
W: 
W: 2. Jesus, teu Nome é santo,
W: Merece o nosso amor;
W: Nos altos céus és nosso Deus,
W: O nosso Protetor;
W: Incomparável sempre és Tu
W: Em tua compaixão,
W: Pois Tu vieste ao mundo vil
W: Fazer-Te nosso irmão!
W: 
W:
W:
W: 3. Jesus, teu Nome é santo,
W: Amarga foi a cruz:
W: O teu sofrer, o teu penar
W: A vida nos produz;
W: Na glória já sentado estás,
W: Atento à adoração
W: Que teus fiéis Te vêm prestar
W: Com grato coração.
W:         
W: 	





